src/images/svg/custom/facebook-40.svg

<svg width="40" height="40" viewBox="0 0 40 40" fill="none" xmlns="http://www.w3.org/2000/svg">
<rect width="40" height="40" rx="4" fill="#1877F2"/>
<circle cx="20" cy="20" r="10" fill="white"/>
<path d="M21.5625 29.8787V22.9695H23.8926L24.3359 20.0612H21.5625V18.1739C21.5625 17.3782 21.9499 16.6027 23.1921 16.6027H24.4531V14.1267C24.4531 14.1267 23.3087 13.9302 22.2146 13.9302C19.9304 13.9302 18.4375 15.323 18.4375 17.8446V20.0612H15.8984V22.9695H18.4375V29.8787C18.9466 29.9586 19.4685 30.0001 20 30.0001C20.5315 30.0001 21.0534 29.9586 21.5625 29.8787Z" fill="#1877F2"/>
</svg>

<svg width="40" height="40" fill="none" xmlns="http://www.w3.org/2000/svg"><rect width="40" height="40" rx="4" fill="#1877F2"/><circle cx="20" cy="20" r="10" fill="#fff"/><path d="M21.563 29.879v-6.91h2.33l.443-2.908h-2.773v-1.887c0-.796.387-1.571 1.63-1.571h1.26v-2.476s-1.144-.197-2.238-.197c-2.285 0-3.777 1.393-3.777 3.915v2.216h-2.54v2.909h2.54v6.909a10.073 10.073 0 0 0 3.125 0Z" fill="#1877F2"/></svg>
